Free Luts/Film print.cube
LUT_1D_SIZE 64

0.0490577554 0.0490577554 0.0490577554
0.0534981308 0.0534981308 0.0534981308
0.0581063554 0.0581063554 0.0581063554
0.0627603571 0.0627603571 0.0627603571
0.0676127260 0.0676127260 0.0676127260
0.0732890822 0.0732890822 0.0732890822
0.0793774319 0.0793774319 0.0793774319
0.0862439918 0.0862439918 0.0862439918
0.0935225452 0.0935225452 0.0935225452
0.1015945678 0.1015945678 0.1015945678
0.1101396201 0.1101396201 0.1101396201
0.1198901350 0.1198901350 0.1198901350
0.1303578241 0.1303578241 0.1303578241
0.1421988251 0.1421988251 0.1421988251
0.1547112230 0.1547112230 0.1547112230
0.1686274510 0.1686274510 0.1686274510
0.1831082628 0.1831082628 0.1831082628
0.1989776455 0.1989776455 0.1989776455
0.2155947204 0.2155947204 0.2155947204
0.2335088121 0.2335088121 0.2335088121
0.2523079271 0.2523079271 0.2523079271
0.2718089570 0.2718089570 0.2718089570
0.2917982757 0.2917982757 0.2917982757
0.3126268406 0.3126268406 0.3126268406
0.3340810254 0.3340810254 0.3340810254
0.3557335775 0.3557335775 0.3557335775
0.3775387198 0.3775387198 0.3775387198
0.3988250553 0.3988250553 0.3988250553
0.4196536202 0.4196536202 0.4196536202
0.4401464866 0.4401464866 0.4401464866
0.4603189136 0.4603189136 0.4603189136
0.4799267567 0.4799267567 0.4799267567
0.4989700160 0.4989700160 0.4989700160
0.5175860227 0.5175860227 0.5175860227
0.5357442588 0.5357442588 0.5357442588
0.5533989471 0.5533989471 0.5533989471
0.5704585336 0.5704585336 0.5704585336
0.5871061265 0.5871061265 0.5871061265
0.6032501717 0.6032501717 0.6032501717
0.6190585183 0.6190585183 0.6190585183
0.6344090944 0.6344090944 0.6344090944
0.6494392309 0.6494392309 0.6494392309
0.6640115969 0.6640115969 0.6640115969
0.6782024872 0.6782024872 0.6782024872
0.6916609445 0.6916609445 0.6916609445
0.7047837034 0.7047837034 0.7047837034
0.7168688487 0.7168688487 0.7168688487
0.7286182956 0.7286182956 0.7286182956
0.7395437552 0.7395437552 0.7395437552
0.7500572213 0.7500572213 0.7500572213
0.7598687724 0.7598687724 0.7598687724
0.7690547036 0.7690547036 0.7690547036
0.7769741360 0.7769741360 0.7769741360
0.7841611353 0.7841611353 0.7841611353
0.7900053407 0.7900053407 0.7900053407
0.7952544442 0.7952544442 0.7952544442
0.7994811933 0.7994811933 0.7994811933
0.8032196536 0.8032196536 0.8032196536
0.8061188678 0.8061188678 0.8061188678
0.8085908293 0.8085908293 0.8085908293
0.8102235447 0.8102235447 0.8102235447
0.8115358206 0.8115358206 0.8115358206
0.8124971389 0.8124971389 0.8124971389
0.8133669032 0.8133669032 0.8133669032